dist/public/logo/message.svg

<svg width="40" height="40" fill="none" xmlns="http://www.w3.org/2000/svg"><path d="M38 8h-4v18H8v4c0 1.1.9 2 2 2h22l8 8V10c0-1.1-.9-2-2-2zm-8 12V2c0-1.1-.9-2-2-2H2C.9 0 0 .9 0 2v28l8-8h20c1.1 0 2-.9 2-2z" fill="#000"/></svg>

<svg width="40" height="40" viewBox="0 0 40 40" fill="none" xmlns="http://www.w3.org/2000/svg">
<path d="M38 8H34V26H8V30C8 31.1 8.9 32 10 32H32L40 40V10C40 8.9 39.1 8 38 8ZM30 20V2C30 0.9 29.1 0 28 0H2C0.9 0 0 0.9 0 2V30L8 22H28C29.1 22 30 21.1 30 20Z" fill="black"/>
</svg>
